X:17
T:My Darling Asleep
S:Seán Gavin
R:jig
M:6/8
L:1/8
K:D
ag | fdd cAA | BAG A2G | FAA def | g3 eag |
fdd cAA | BAG A2G | FAA def | gec d3 :|
|: FAA BAG | FAA BAG | FAA def | g3 eag |
fdd cAA | BAG A2G | FAA def | gec d3 :|

